X:1
T:Dextera Domini
T:Offertoire pour le saint jour de Pâques
T:César Franck (1822-1890)
T:Dextera Domini
T:Copyright © 2014 by the Choral Public Domain Library (http://www.cpdl.org)
T:Copyright © 2014 by the Choral Public Domain Library (http://www.cpdl.org)
T:Copyright © 2014 by the Choral Public Domain Library (http://www.cpdl.org)
T:Copyright © 2014 by the Choral Public Domain Library (http://www.cpdl.org)
T:Copyright © 2014 by the Choral Public Domain Library (http://www.cpdl.org)
T:Copyright © 2014 by the Choral Public Domain Library (http://www.cpdl.org)
T:Copyright © 2014 by the Choral Public Domain Library (http://www.cpdl.org)
T:Copyright © 2014 by the Choral Public Domain Library (http://www.cpdl.org)
T:Copyright © 2014 by the Choral Public Domain Library (http://www.cpdl.org)
T:Copyright © 2014 by the Choral Public Domain Library (http://www.cpdl.org)
T:Copyright © 2014 by the Choral Public Domain Library (http://www.cpdl.org)
T:Copyright © 2014 by the Choral Public Domain Library (http://www.cpdl.org)
C:César Franck
Z:Copyright © 2014 by the Choral Public Domain Library (http://www.cpdl.org)
%%score [ 1 2 3 ] { ( 4 5 8 ) | ( 6 7 9 ) }
L:1/8
Q:1/4=120
M:4/4
K:Bb
V:1 treble nm="Soprano" snm="Sop."
V:2 treble transpose=-12 nm="Tenor" snm="Ten."
V:3 bass nm="Bass" snm="Bs."
V:4 treble nm="Organ" snm="Org."
V:5 treble 
V:8 treble 
V:6 bass 
V:7 bass 
V:9 bass 
V:1
 z8 | z8 | z8 | z8 | z8 | z8 | z8 | z8 | z8 | z8 | z8 | z8 | z8 | z8 | z8 | z8 | z8 | z8 | z8 | %19
w: |||||||||||||||||||
 z8 | z8 | z8 | z8 | z8 | z8 | z8 | z8 | z8 | z8 | z8 | z8 | z8 | B3 c d4 | c3 B c4 | B4 d2 f2 | %35
w: |||||||||||||Dex- te- ra|Do- mi- ni|fe- cit vir-|
 (g2 e2) c4 | B3 c d4 | c3 B c4 | (B4 d2) f2 | d2 c2 B4 | (f4 gf e2 | f3) f (gf) e2 | (f4 ed c2) | %43
w: tu- * tem,|dex- te- ra|Do- mi- ni|e- * xal-|ta- vit me.|Al- * * *|* le- lu- * ia,|al- * * *|
 (dc) B2 c4 | B3 c d4 | c3 B c4 | (!^!B4 !^!d2) !^!f2 | !^!d2 !^!c2 !^!!fermata!B4 | %48
w: le- * lu- ia!|Dex- te- ra|Do- mi- ni|e- * xal-|ta- vit me.|
"^Solo" f3 e !courtesy!_d4 | e3 !courtesy!_d c4 | z8 | z8 | (!courtesy!_A3 !courtesy!_G) F4 | %53
w: Dex- te- ra|Do- mi- ni|||e- * xal-|
 !courtesy!_G3 F E4 | z8 | z8 | z8 | z8 | z8 | z8 ||[K:Db] d4 e3 e | (f8- | f2 e2) (f2 g2) | %63
w: ta- vit me.|||||||Non mo- ri-|ar|_ _ sed- *|
 f4 e4 | (e4 f2) c2 | d2 d2 e3 B | (d2 c2) B2 c2 | d4 z4 |"^Chœur" (e4 f2) c2 | d2 d2 e3 B | %70
w: vi- vam|et * nar-|ra- bo o pe-|ra _ Do- mi-|ni,|et * nar-|ra- bo o- pe-|
 (d2 c2) B2 c2 | d4 z4"^Solo" | z8 | z4 B4- | B4 g3 f | e2 e2 (e3 f) | d4 z4 |"^Tutti" z4 B4- | %78
w: ra * Do- mi-|ni||Non|* mo- ri-|ar sed vi- *|vam|o-|
 B4 g3 f | e4 e3 f | (d2 f2) a2 g2 | f4 e3 d | d4 z4 | z8 | z8 | z8 |"^Solo" (A4 BA G2 | %87
w: * * pe-|ra Do- mi-|ni, * o- pe-|ra Do- mi-|ni||||Al- * * *|
 A3) A BA G2 | (A4 GF E2 | FE) D2 E4 | D2 (A4 B>)B | c2 A4 B>B | c2 A4 f>f | (e2 A2- AF=GA) | %94
w: * le- lu- * ia,|al- * * *|* * le- lu-|ia, al- * le-|lu- ia, al- le-|lu- ia, al- le-|lu- * * * * *|
 A2 fe d4- | d2 fe d4- | d2 (fe) d4- | d2 ef g2 g2 |"^Tutti" (f4 gf e2 | f3) f gf e2 | (f4 ed c2 | %101
w: ia dex- te- ra|* Do- mi- ni|* fe- * cit|* vir- * tu- tem|al- * * *|* le- lu- * ia,|al- * * *|
 dc) B2 c4 | d2 z6 | z8 | z8 | z8 | (f4 a=g f2 | =g3) g ag f2 | (=g4 fe =d2 | e=d) c2 d4 | %110
w: * * le- lu-|ia.||||Al- * * *|* le- lu- * ia,|al- * * *|* * le- lu-|
 e2 z2 z4 | z8 | (=G4 AG F2 | =G3) G (AG F2) | =G4 z4 | z8 | z8 | z8 | z8 | z8 | z8 | z8 || %122
w: ia,||al- * * *|* le- lu- * *|ia,||||||||
[K:Bb] F3 G A4 | B3 c d4 | (e2 d2) c2 f2 | (e2 d2) (c2 f2) | (e2 d2) c2 B2 | (B2 A2) G2 F2 | %128
w: Dex- te- ra|Do- mi- ni|fe- * cit vir-|tu- * tem, *|dex- * te- ra|Do- * mi- ni|
 (F2 GA) B4- | B2 (cG) (BA) (GA) | B3 c d4 | c3 B c4 | (B4 d2) f2 | d2 c2 B4 | (f4 gf e2 | %135
w: fe- * * cit|* vir- * tu- * tem, *|dex- te- ra|Do- mi- ni|e- * xal-|ta- vit me.|Al- * * *|
 f3) f gf e2 | (f4 ed c2) | dc B2 c4 | B3 c d4 | c3 B c4 | (B4 !^!d2) !^!f2 | !^!d2 !^!c2 !^!B4 | %142
w: * le- lu- * ia,|al- * * *|le- * lu- ia.|Dex- te- ra|Do- mi- ni|e- * xal-|ta- vit- me|
 B4 c3 c | d8- | (d2 c2) (d2 e2) | d4 c4 | (c4 d2) A2 | B2 B2 c3 G | (B2 A2) G2 A2 | B8 | %150
w: non mo- ri-|ar|* * sed *|vi- vam|et * nar-|ra- bo o- pe-|ra * Do- mi-|ni|
 (c4 d2) A2 | B2 B2 c3 G | (B2 A2) G2 A2 | B4 z4 |"^Solo" z4 d4- | d4 (g3 f) | f2 e2 G2 B2 | %157
w: et * nar-|ra- bo o- pe-|ra * Do- mi-|ni|et|* nar- *|ra- bo et nar-|
 (A2 G2) F2 z2 | z4"^Tutti" d4- | d4 (g3 f) | f2 e2 g2 B2 | A2 G2 F4- | F2 (d2 f2) e2 | d4 c3 B | %164
w: ra- * bo|et|* nar- *|ra- bo et nar-|ra- * bo|* o- * pe-|ra Do- mi-|
 B8- | B8- | B2 G2 A2 B2 | (d4 c3) B | B8- | B8- | B2 g2 f2 e2 | (d8- | d4 c3) B | B4 z4 | z8 | %175
w: ni|_|* o- pe- ra|Do- * mi-|ni|_|* o- pe- ra|Do-|* * mi-|ni||
 F8- | F2 F2 F4 | F4 z4 | z8 | F8- | F8- | F2 F2 F4 | F4 F3 F | F8 | F4 z4 | z8 |] %186
w: al-|* le- lu-|ia||al-||* le- lu-|ia, al- le-|lu-|ia.||
V:2
 z8 | z8 | z8 | z8 | z8 | z8 | z8 | z8 | z8 | z8 | z8 | z8 | z8 | z8 | z8 | z8 | B3 c d4 | %17
w: ||||||||||||||||Dex- te- ra|
 c3 B c4 | B4 d2 f2 | (g2 e2) c4 | B3 c d4 | c3 B c4 | (B4 d2) f2 | d2 c2 B4 | (f4 gf e2 | %25
w: Do- mi- ni|fe- cit vir-|tu- * tem,|dex- te- ra|Do- mi- ni|e- * xal-|ta- vit me.|Al- * * *|
 f3) f ef e2 | (f4 ed c2) | dc B2 c4 | B3 c d4 | c3 B c4 | (B4 d2) f2 | d2 c2 B4 | d3 e f4 | %33
w: * le- lu- * ia,|al- * * *|le- * lu- ia.|Dex- te- ra|Do- mi- ni|e- * xal-|ta- vit me.|Dex- te- ra|
 e3 e e4 | d4 B4- | B2 g2 f2 e2 | d3 e f4 | e3 e e4 | d6 d2 | f2 e2 d4 | z2 d>d e2 c2 | %41
w: Do- mi- ni|fe- cit-|* vir- tu- tem,|dex- te- ra|Do- mi- ni|e- xal-|ta- vit me.|Al- le- lu- ia,|
 z2 d>d B2 c2 | z2 (d2 e2 f2- | f2) d2 e2 e2 | d3 e f4 | e3 e e4 | (!^!d4 !^!f2) !^!f2 | %47
w: al- le- lu- ia!|Al- * *|* le- lu- ia!|Dex- te- ra|Do- mi- ni|e- * xal-|
 !^!g2 !^!A2 !^!!fermata!B4 | !courtesy!_d3 c B4 | c3 B A4 | z8 | z8 | (f3 e) !courtesy!_d4 | %53
w: ta- vit- me.|Dex- te- ra|Do- mi- ni|||e- * xal-|
 e3 !courtesy!_d c4 | z8 | z8 | z8 | z8 | z8 | z8 ||[K:Db] d4 B3 B | (A4 d4- | d2 c2) (d2 e2) | %63
w: ta- vit me.|||||||Non mo- ri-|ar _|_ _ sed *|
 d4 c4 | A6 A2 | A2 A2 B2 g2 | e4 e2 e2 | f4 d4- | (d2 c2) (d2 e2) | A2 !courtesy!_c2 B2 g2 | %70
w: vi- vam|et nar-|ra- bo o- pe-|ra Do- mi-|ni, et|* * nar- *|ra- bo o- pe-|
 (f2 e2) d2 e2 | f4 A4- | A4 d3 c | (c4 B2) z2 | z8 | z4"^Chœur" A4- | A4 (d3 c) | c4 B4- | %78
w: ra * Do- mi-|ni. Non|* mo- ri-|ar *||et|* nar- *|ra- bo|
 B4 d2 g2 | (g2 e2) B2 c2 | (d2 c2) !courtesy!_c2 B2 | (A2 d2) c3 d | d4 z4 | z8 | z8 | z8 | z8 | %87
w: * o- pe-|ra * Do- mi-|ni * o- pe-|ra * Do- mi-|ni|||||
 z8 | z8 | z8 | (d4 fe d2 | e3) e (fe) d2 | (e4 dc B2 | cB) A2 B4 | A2 (c2 d2 e2) | f2 d4 e>e | %96
w: |||Al- * * *|* le- lu- * ia,|al- * * *|* * le- lu-|ia, al- * le-|lu- ia, al- le-|
 f2 d4 cB | A2 d2- dBcd | d2 dc B4- | B2 dc B4- | B2 dc B4- | B2 B2 =A4 | B2 z6 | z8 | B4 dc B2 | %105
w: lu- ia, al- le-|lu- * * * * *|ia dex- te- ra|* Do- mi- ni|* fe- * cit|* vir- tu-|tem.||Al- * * *|
 c3 c dc B2 | c2 (c4 =d>)d | e2 c4 =d>d | e2 c2 z2 g>g | =g2 c4 =B2 | c2 z2 z4 | z8 | z2 (e=d c4- | %113
w: * le- lu- * *|ia, al- * le-|lu- ia, al- le-|lu- ia, al- le-|lu- * *|ia,||al- * *|
 c2 e=d c4- | c)=G (e=d) c2 z2 | z8 | z8 | z8 | z8 | z8 | =G3 =A B4 | =A3 =G A4 ||[K:Bb] A3 B c4 | %123
w: |* le- lu- * ia,||||||Dex- te- ra|Do- mi- ni|Dex- te- ra|
 d3 c (B4- | B4 A4 | G4 A4) | B3 c d4 | c3 B c4 | B4 d2 f2 | (g2 e2) c4 | d3 e f4 | e3 e e4 | %132
w: Do- mi- ni|||dex- te- ra|Do- mi- ni|fe- cit vir-|tu- * tem,|dex- te- ra|Do- mi- ni|
 d6 d2 | f2 e2 d4 | z2 d>d e2 c2 | z2 d>d B2 c2 | z2 (d2 e2 f2- | f2) d2 e2 e2 | d3 e f4 | %139
w: e- xal-|ta- vit me.|Al- le- lu- ia,|al- le- lu- ia,|al- * *|* le- lu- ia,|dex- te- ra|
 e3 e e4 | (d4 !^!f2) !^!f2 | !^!g2 !^!A2 !^!B4 | B4 g3 g | f4 B4- | (B2 A2) (B2 c2) | B4 A4 | %146
w: Do- mi- ni|e- * xal-|ta- vit me|non mo- ri-|ar *|* * sed *|vi- vam|
 A6 f2 | f2 f2 g2 e2 | c4 c2 c2 | d4 B4- | (B2 A2) (B2 c2) | F2 !courtesy!_A2 G2 e2 | %152
w: et nar-|ra- bo o- pe-|ra Do- mi-|ni et|* * nar- *|ra- bo o- pe-|
 (d2 c2) B2 c2 | d4 f4- | f4 (B3 A) | A4 G4 | z8 | z4 f4- | f4 (B3 A) | A4 G4- | G4 B2 e2 | %161
w: ra * Do- mi-|ni et|* nar- *|ra- bo||et|* nar- *|ra- bo|* o- pe-|
 e4 c2 A2 | f4 !courtesy!_a2 g2 | f4 e3 d | (d4 f4) | e4 d4 | c8 | (B4 A3) B | (B4 !courtesy!_A4) | %169
w: ra Do- mi-|ni o- pe-|ra Do- mi-|ni _|o- pe-|ra|Do- * mi-|ni _|
 (G2 A2) B4 | B8 | A4 B4 | G4 A3 B | B4 z4 | z8 | F8- | F2 F2 F4 | d4 z4 | z8 | F8- | F8- | %181
w: o- * pe-|ra|o- pe-|ra Do- mi-|ni||al-|* le- lu-|ia||al-||
 F2 F2 F4 | d4 d3 d | d8 | d4 z4 | z8 |] %186
w: * le- lu-|ia, al- le-|lu-|ia.||
V:3
 B,,3 C, D,4 | C,3 B,, C,4 | B,,4 D,2 F,2 | (G,2 E,2) C,4 | B,,3 C, D,4 | C,3 B,, C,4 | %6
w: Dex- te- ra|Do- mi- ni|fe- cit vir-|tu- * tem,|dex- te- ra|Do- mi- ni|
 (B,,4 D,2) F,2 | D,2 C,2 B,,4 | (F,4 G,F, E,2 | F,3) F, G,F, E,2 | (F,4 E,D, C,2) | %11
w: e- * xal-|ta- vit me.|Al- * * *|* le- lu- * ia,|al- * * *|
 D,C, B,,2 C,4 | B,,3 C, D,4 | C,3 B,, C,4 | (B,,4 D,2) F,2 | D,2 C,2 B,,4 | z4 B,3 B, | %17
w: le- * lu- ia.|Dex- te- ra|Do- mi- ni|e- * xal-|ta- vit me.|Dex- te-|
 F,4 F,3 F, | G,4 D,4 | E,2 C,2 F,4 | D,2 z2 B,3 B, | (B,2 G,2) A,3 A, | B,4 F,2 F,2 | %23
w: ra Do- mi-|ni fe-|cit vir- tu-|tem, dex- te-|ra * Do- mi-|ni e- xal-|
 G,2 A,2 B,4 | z2 D>D E2 C2 | z2 D>D B,2 C2 | z2 (DB, G,2 A,2 | B,3) B, (B,A,) (G,F,) | z4 B,3 B, | %29
w: ta- vit me.|Al- le- lu- ia,|al- le- lu- ia,|al- * * *|* le- lu- * ia. *|Dex- te-|
 F,4 F,3 F, | G,2 B,4 A,2 | G,2 A,2 B,4 | B,3 B, B,4 | F,3 F, F,4 | G,4 D,4 | (E,2 C2) A,2 F,2 | %36
w: ra Do- mi-|ni e- xal-|ta- vit me.|Dex- te- ra|Do- mi- ni|fe- cit|vir- * tu- tem.|
 z4 B,3 B, | (B,2 G,2) A,3 A, | B,4 F,2 F,2 | G,2 A,2 B,4 | z2 B,>B, B,2 B,2 | z2 B,>B, E,2 G,2 | %42
w: Dex- te-|ra _ Do- mi-|ni e- xal-|ta- vit me.|Al- le- lu- ia,|al- le- lu- ia!|
 z2 (B,2 G,2 A,2 | B,3) B, (B,A,) (G,F,) | B,3 B, B,4 | F,3 F, F,4 | !^!G,4 !^!D,2 !^!D,2 | %47
w: Al- * *|* le- lu- * ia *|Dex- te- ra|Do- mi- ni|e- * xal-|
 !^!E,2 !^!F,2 !^!!fermata!B,,4 | F,3 F, !courtesy!_G,4 | E,3 E, F,4 | z8 | z8 | %52
w: ta- vit me.|Dex- te- ra|Do- mi- ni|||
 !courtesy!_A,4 B,4 | !courtesy!_G,3 G, !courtesy!_A,4 | z8 | z8 | z8 | z8 | z8 | z8 || %60
w: e- xal-|ta- vit me.|||||||
[K:Db] D,4 G,3 G, | (D,6 C,2) | (B,,4 A,,2 G,,2) | A,,4 A,,4 | G,6 G,2 | F,2 F,2 G,3 G, | %66
w: Non mo- ri-|ar *|sed * *|vi- vam|et nar-|ra- bo o- pe-|
 A,4 A,2 A,2 | D,4 z4 | G,4- G,3 G, | F,2 F,2 G,3 G, | A,4 A,2 A,2 | D,4 z4 | z4 F,4- | %73
w: ra Do- mi-|ni,|et * nar-|ra- bo o- pe-|ra Do- mi-|ni|Non|
 F,4 B,3 A, | (A,2 G,2) (B,2 D2) | (C2 B,2 A,2 G,2) | F,2 z2 F,4- | F,4 (B,3 A,) | A,2 G,2 B,2 D2 | %79
w: * mo- ri-|ar * sed *|vi- * * *|vam et|* nar- *|ra- bo o- pe|
 (C2 B,2) A,2 G,2 | F,4 F,2 G,2 | A,4 A,3 D, | D,4 z4 | z8 | z8 | z8 | z8 | z8 | z8 | z8 | z8 | %91
w: ra * Do- mi-|ni o- pe-|ra Do- mi-|ni|||||||||
 z8 | z8 | z8 | (A,4 B,A, G,2 | A,3) A, B,A, G,2 | (A,4 G,F, E,2 | F,E,) D,2 E,4 | D,2 (B,4 C>)C | %99
w: |||Al- * * *|* le- lu- * ia,|al- * * *|* * le- lu-|ia al- * le-|
 D2 B,4 C>C | D2 C4 G,>G, | (F,2 B,,D,) F,4 | (F,4 G,F, E,2 | F,3) F, (G,F,) E,2 | F,6 (B,,D,) | %105
w: lu- ia, al- le-|lu- ia, al- le-|lu- * * ia,|al- * * *|* le- lu- * ia,|al- le- *|
 (F,6 B,,D,) | F,2 E,=D, C,4- | C,2 E,=D, C,4- | C,2 (E,=D,) C,4- | C,2 (C,E,) =G,2 G,2 | %110
w: lu- * *|ia, Dex- te- ra|* Do- mi- ni|* fe- * cit|* vir- * tu- tem|
 =G,4 A,G, F,2 | =G,3 G, (A,G, F,2) | =G,4 z4 | z8 | C,3 =D, E,4 | =D,3 C, D,4 | C,4 E,2 =G,2 | %117
w: al- * * *|* le- lu- * *|ia.||Dex- te- ra|Do- mi- ni|fe- cit vir-|
 (A,2 F,2) =D,4 | C,3 =D, E,4 | =D,3 C, D,4- | D,8- | D,8 ||[K:Bb] E,6 D,C, | B,,6 A,,G,, | F,,8- | %125
w: tu- * tem,|dex- te- ra|Do- mi- ni|||e- xal- *|ta- vit- *|me|
 F,,4 F,4 | F,4 B,,4 | (E,8 | D,8 | C,4) F,4 | B,,4 B,2 B,2 | (B,2 G,2) A,3 A, | B,4 F,2 F,2 | %133
w: |e- xal-|ta-||* vit|me. Dex- te-|ra _ Do- mi-|ni e- xal-|
 G,2 A,2 B,4 | z2 B,>B, B,2 B,2 | z2 B,>B, E,2 G,2 | z2 (B,2 G,2 A,2 | B,3) B, (B,A,) G,F, | %138
w: ta- vit me|Al- le- lu- ia,|al- le- lu- ia,||* le- lu- * ia, *|
 B,3 B, B,4 | F,3 F, F,4 | (G,4 !^!D,2) !^!D,2 | !^!E,2 !^!F,2 !^!B,,4 | B,4 E,3 E, | (B,6 A,2) | %144
w: dex- te- ra|Do- mi- ni|e- * xal-|ta- vit me|non mo- ri-|ar *|
 (G,4 F,2 E,2) | F,4 F,4 | E,6 E,2 | D,2 D,2 E,3 E, | F,4 F,2 F,2 | B,,8 | E,4- E,2 E,2 | %151
w: sed * *|vi- vam|et nar-|ra- bo o- pe-|ra Do- mi-|ni|et * nar-|
 D,2 D,2 E,3 E, | F,4 F,2 F,2 | B,,4 z4 | z8 | z4 (G,4- | G,4 E3) D | C4 C3 D | B,4 z4 | z4 G,4- | %160
w: ra- bo o- pe-|ra Do- mi-|ni||o-|* * pe-|ra Do- mi-|ni|o-|
 (G,4 E3) D | C4 C3 D | B,4 =B,2 C2 | F,4 A,3 B, | (B,4 !courtesy!_A,4) | G,4 F,4 | E,8 | F,7 B,, | %168
w: * * pe-|ra Do- mi-|ni o- pe-|ra Do- mi-|ni _|o- pe-|ra|Do- mi-|
 (B,,4 F,4) | E,4 D,4 | G,8 | ^F,4 G,4 | E,4 F,3 B,, | B,,4 z4 | z8 | (F,4 E,D, C,2 | %176
w: ni _|o- pe-|ra|o- pe-|ra Do- mi-|ni||al- * * *|
 D,C,) B,,2 C,4 | B,,4 z4 | z8 | (F,4 E,D, C,2 | F,4 E,D,) C,2 | D,C, B,,2 C,4 | B,,4 B,3 B, | %183
w: * * le- lu-|ia||al- * * *||* * le- lu-|ia, al- le-|
 B,8 | B,4 z4 | z8 |] %186
w: lu-|ia.||
V:4
 x8 | x8 | x8 | x8 | x8 | x8 | x8 | x8 | x8 | x8 | F8- | F8 | x8 | x8 | x4 F,4 | x8 | x8 | x8 | %18
 x8 | x8 | x8 | x8 | x4 A,4 | x8 | x8 | x8 | x8 | x8 | x8 | x8 | x8 | x8 | x8 | x8 | x8 | x8 | x8 | %37
 x8 | x8 | x8 | x8 | x8 | x8 | x8 | x8 | x8 | x8 | x8 | x8 | x8 | x8 | x8 | x8 | x8 | x8 | x8 | %56
 x8 | x8 | x8 | x8 ||[K:Db] x8 | x8 | x8 | x8 | x8 | x8 | x8 | x8 | x8 | x8 | x8 | x8 | x8 | x8 | %74
 x8 | z4 A4- | A4 F4- | F4 G3 A | x8 | x8 | x8 | x8 | x8 | x8 | x8 | x8 | x8 | x8 | x8 | x8 | x8 | %91
 x8 | x8 | x8 | x8 | x8 | x8 | x8 | x8 | x8 | x8 | x8 | x8 | x8 | x8 | x8 | x8 | x8 | x8 | x8 | %110
 x8 | x8 | x8 | x8 | x8 | x8 | x8 | x8 | x8 | x8 | x8 | x8 ||[K:Bb] x8 | x8 | x8 | x8 | x8 | x8 | %128
 x8 | x8 | x8 | x8 | x8 | x8 | x8 | x8 | x8 | x8 | x8 | x8 | x8 | x8 | x8 | x8 | x8 | x8 | x8 | %147
 x8 | x8 | x8 | x8 | x8 | x8 | x8 | x8 | x8 | x8 | x4 F4- | F4 x4 | x8 | x8 | x8 | x8 | x8 | x8 | %165
 x8 | x8 | x8 | x8 | x8 | x8 | x8 | x8 | x8 | x8 | x8 | x8 | x4 C4 | x4 C4 | x8 | x8 | x8 | x8 | %183
 x8 | x8 | x8 |] %186
V:5
 [B,D]8 | E8 | D4 F4 | [B,CG]4 [A,EF]4 | [DF]8 | [CE]8 | D4 A,4 | [B,F]2 [CE]2 B,4 | [DF]4 [CE]4 | %9
 [DF]4 [CE]4 | D4 ED C2 | DC B,2 C4 | [DF]8 | [CE]8 | D4 D2 F2 | D2 C2 B,4 | [B,D]8 | A,3 G, A,4 | %18
 [B,D]4 [B,DF]4 | [B,G]4 [A,F]4 | [B,DF]8 | B,2 G,2 A,4 | D4 F4- | F4- F4 | [DF]4 [CE]4 | F4 E4 | %26
 [B,DF]4 ED [A,C]2 | B,4- B,A,G,F, | D8 | [CE]8 | D6 F2 | D2 C2 B,4 | [DB]3 [EBc] [FBd]4 | %33
 [EAc]3 [EGB] [EAc]4 | [DGB]4 d2 f2 | g2 e2 c4 | [DB]3 [Ec] [Fd]4 | [Ec]3 [EB] [Ec]4 | B4 d2 f2 | %39
 d2 c2 B4 | z2 [FBf] z [GBg] z [EBe] z | z2 [FBf] z [GBg] z [EBe] z | z2 [FBf] z [Be] z [ce] z | %43
 [Bd] z z2 [Fc] z z2 | [DB]3 [Ec] [Fd]4 | [Ec]3 [EB] [Ec]4 | !^![DB]4 !^![Fd]2 !^![Ff]2 | %47
 !^![Gd]2 !^![Ac]2 !^!!fermata!B4 | z8 | z8 | [!courtesy!_DF-]8 | [!courtesy!_DF]4 [EG]4 | %52
 [!courtesy!_DF!courtesy!_A]2 z2 z4 | z8 | !courtesy!_A8- | A4 B4 | c3 B !courtesy!_A4 | %57
 !courtesy!_d3 c B4 | e4- e3 c | !courtesy!_A!courtesy!_GEC z4 ||[K:Db] z8 | %61
 z dA!courtesy!=F DA, x2 | F2 z2 z4 | z fdA BAGE | CB,A, z z4 | z8 | z8 | z fed AFED | z agf dcBA | %69
 z afd z bgf | x aba gecA | d z z2 A4- | A4 d3 c | c4 B4- | B4 f3 f | e4- e3 f | d4 d3 c | x8 | %78
 B2 G2 g2 f2 | e4- e3 f | d2 [cf]2 [!courtesy!_ca]2 [Bg]2 | f4 [Ge]3 [!courtesy!_Fd] | %82
 (3[Fd] DF(3AGF (3z Dd(3BAG | (3z DF(3AGF (3z Dd(3BAG | (3z DF(3AGF (3z A,A(3GFE | %85
 (3z A,G(3FED (3z A,B,{D}(3CB,B, | [DFA]4 B4 | [DFA]4 B4 | [DFA]4 [EGc]4 | d4- d2 c2 | d2 A4 B2 | %91
 c2 A4 B2 | c2 A4 f2 | e2 A2 AF=GA | A2 fe d4- | d2 fe d4- | d2 fe d4- | d2 ef g4 | %98
 x2 .[FBdf]2 .[GBeg]2 .[GBeg]2 | z2 [FBdf]2 [GBeg]2 [GBeg]2 | z2 [FBdf]2 [GBe]2 [EBc]2 | %101
 [FBd]2 [DFB]2 [CF=Ac]4 | [DFBd] FDC B,DCE | DFDC B,DCE | DBA=G FAGB | AcA=G FAGB | %106
 A2 z2 .[Afa]2 .[F=df]2 | [=Ge=g]2 z2 [Afa]2 [F=df]2 | .[=Ge=g]2 z2 [Fcf]2 [Ac=d]2 | %109
 [=Gce]2 [EGc]2 [=D_Gc]2 [DG=B]2 | [E=Gc]GE=D CEDF | E=GE=D CEDF | E=GE=D CEDF | E=GE=D CEDF | %114
 E=GE=D C4- | C=B,=DE F4- | FE=GE C3 E- | E=DFD =B,3 C | E8 | =D8- | D8- | D8 ||[K:Bb] F3 G A4 | %123
 B3 c d4 | e2 d2 c2 f2 | e2 d2 c2 f2 | e2 d2 c2 B2- | B2 A2 G2 F2 | F2 GA B4- | B2 cG BAGA | %130
 [DB]3 [Ec] [Fd]4 | [Ec]3 [EB] [Ec]4 | B4 d2 f2 | d2 c2 B4 | x8 | x8 | x7 z | x8 | %138
 [DB]3 [Ec] [Fd]4 | [Ec]3 [EB] [Ec]4 | [DB]4 !^![Fd]2 !^![Ff]2 | x8 | z dfb ge c2 | z dfb dc B2 | %144
 z Bca dbec' | z dfb afcA | c4 d3 A | B4 c3 A | B2 A2 G2 A2 | [DB]dcB FDCB, | z fec BAGF | %151
 z fdB z gec | z fgf ecAF | B x3 F4- | F4 B3 A | A4 G4- | G4 e3 B | c4- c3 d | B4 B3 A | A4 G4- | %160
 G4 e2 d2 | c4- c3 d | B2 d2 f2 e2 | F4 E3 D | B8- | B8- | B2 G2 A2 B2 | d4 c3 B | B8- | B8- | %170
 B2 f2 f2 e2 | d8- | d4 c3 B | B2 z2 GF E2 | F4 GF E2 | F4 x4 | z4 [A,EF]4 | [DF]4 GF E2 | %178
 [DF]4 GF E2 | [DF]4 z4 | z8 | z4 [A,EF]4 | [B,DF]4 z4 | z8 | z8 | z8 |] %186
V:6
 B,,8 | F,,8 | G,,4 D,,4 | E,,4 F,,4 | B,,8 | F,,8 | G,,4 F,,4 | G,,2 A,,2 B,,4 | F,4 G,4 | %9
 F,4 G,4 | F,4 G,2 A,2 | F,2 G,2 A,4 | [B,,B,]8 | [F,,F,]8 | G,4 D,4 | E,,2 F,,2 B,,4 | [B,,F,]8 | %17
 [F,,F,]8 | G,,4 D,,4 | E,,2 C,,2 F,,4 | B,,8 | F,,8 | G,,4 F,,4 | G,,2 A,,2 B,,4 | F,4 G,4 | %25
 F,4 G,4 | F,8- | F,8- | [B,,F,-]8 | F,8 | G,4 D,4 | E,4 D,4 | B,3 B, B,4 | F,3 F, F,4 | G,4 B,4- | %35
 B,2 C2 A,4 | B,3 B, B,4- | B,2 G,2 A,4 | B,4 A,4 | B,2 C2 D4 | D4 E2 C2 | %41
 z2 [B,,B,] z [E,,E,] z [G,,G,] z | z2 [B,,B,] z [G,,G,] z [A,,A,] z | [B,,B,] z DB,- B,A,G,F, | %44
 B,3 B, B,4- | B,2 G,2 A,4 | !^![G,B,]4 !^![D,B,]2 !^![D,B,]2 | %47
 !^![E,E]2 !^![F,E]2 !^!!fermata![B,D]4 | z8 | z8 | B,,4 !courtesy!_D,2 F,2 | %51
 !courtesy!_D,2 C,2 B,,4 | !courtesy!_A,,2 z2 z4 | z8 | !courtesy!_D,4 F,2 !courtesy!_A,2 | %55
 F,2 E,2 !courtesy!_D,4 | !courtesy!_A,,2 z2 z4 | x8 | x8 | %59
 z4 !courtesy!_A,!courtesy!_G,E,!courtesy!_A,, ||[K:Db] D,2 z2 z4 | z4 z2 D,F, | B,2 z2 z4 | %63
 z4 z A,,C,E, | G,2- G, z z4 | z8 | z8 | z4 D4- | D2 D2 D2 E2 | A,2 !courtesy!_C2 B,2 G2 | %70
 F2 E2 D2 E2 | (3[A,F]A,D (3FED (3z A,D (3FED | (3z A,D (3FED (3z =A,D (3FED | %73
 (3z B,D (3FED (3z B,D (3FED | (3z G,B, (3DCB, (3z G,B, (3DCB, | (3z G,C (3EDC (3z G,C (3EDC | %76
 (3z A,D (3FED (3z =A,D (3FED | (3z B,D (3FED (3z B,D (3FED | (3z G,B, (3DCB, (3z G,B, (3DCB, | %79
 (3z G,C (3EDC (3z G,C (3EDC | (3z A,D (3FED (3z =A,D (3FED | (3z A,D F z (3z A,D C z | %82
 A,4 DB, G,2 | A,4 B,A, G,2 | A,4 G,F, E,2 | F,E, D,2 E,4 | D,2 z2 z4 | z8 | z8 | D4 E4 | %90
 F2 z2 FE D2 | x8 | E4 DC D2 | ED C2 D4 | C4 D2 E2 | F2 D4 E2 | F2 D4 CB, | A,2 D2- DB,C^C | %98
 [D,D]2 [D,D]2 [D,D]2 [D,D]2 | z2 [B,,B,]2 [E,B,]2 [E,B,]2 | z2 [B,,B,]2 [E,B,]2 [G,B,]2 | %101
 [F,B,]2 [G,B,]2 [F,=A,]4 | B, z z2 G,F, E,2 | F,4 G,F, E,2 | B,4 DC B,2 | C4 DC B,2 | %106
 C2 z2 .[G,C]2 .[F,C]2 | [=G,C]2 z2 [_G,C]2 [F,C]2 | [=G,C]2 z2 [A,C]2 [F,C]2 | %109
 [=G,C]2 [G,C]2 C2 =B,2 | C2 z2 A,_G, F,2 | =G,4 A,G, F,2 | =G,4 z4 | z8 | E,3 F, G,4 | %115
 =D,3 C, D,4 | C,4 E,2 =G,2 | A,2 F,2 =D,4 | =G,8- | G,8- | G,8 | F,8 ||[K:Bb] E,6 D,C, | %123
 B,,6 A,,G,, | F,,8 | F,,4 x4 | B,3 C D4 | C3 B, C4 | B,4 x2 B,2 | B,2 G,2 F,4 | B,3 B, B,4- | %131
 B,2 G,2 A,4 | [G,B,]4 [F,A,]4 | [G,B,]2 [A,C]2 [B,D]4 | D4 E2 C2 | D4 B,2 C2 | D4 E2 F2- | %137
 F2 DB,- B,A,G,F, | B,3 B, B,4- | B,2 G,2 A,4 | [G,B,]4 !^![D,B,]2 !^![D,B,]2 | %141
 !^![E,E]2 !^![F,E]2 !^![B,D]4 | [F,B,]4 [E,B,C]4 | [B,D]8- | [B,D]2 [A,C]2 [B,D]2 [CE]2 | %145
 [B,D]4 [A,C]4 | z E,F,A, EA,F,E, | z D,F,B, z E,G,C | z F,CF CFCF,- | F,F, z2 B,4- | %150
 B,2 A,2 B,2 C2 | F,2 !courtesy!_A,2 G,2 E2 | D2 C2 B,2 C2 | (3DF,B, (3DCB, (3z F,B, (3DCB, | %154
 (3z F,B, (3DCB, (3z ^F,B, (3DCB, | (3z G,B,(3DCB, (3z G,B,(3DCB, | %156
 (3z E,G,(3B,A,G, (3z E,G,(3B,A,G, | (3z E,A,(3CB,A, (3z E,A,(3CB,A, | %158
 (3z F,B, (3DCB, (3z ^F,B, (3DCB, | (3z G,B,(3DCB, (3z G,B,(3DCB, | %160
 (3z E,G,(3B,A,G, (3z E,A,(3CB,A, | (3z E,A,(3CB,A, (3z E,A,(3CB,A, | %162
 (3z F,B,(3DCB, (3z F,=B,(3CDE | (3z F,B, D z (3z E,F, A, z | %164
 (3z F,B,(3DB,F, (3z !courtesy!_A,B,(3!courtesy!_AB,A, | (3z G,B,(3GB,G, (3z F,B,(3FB,F, | %166
 [E,G,]8 | B,4 A,3 B, | (3B,F,B,(3DB,G, (3z F,!courtesy!_A,(3B,A,F, | %169
 (3z E,G,(3B,G,E, (3z D,F,(3B,F,D, | [G,B,]8 | A,4 B,4 | B,4 A,3 B, | [F,B,]2 z2 E,2 G,2 | %174
 F,4 E,2 G,2 | x4 z4 | z4 [C,F,]4 | F,4 E,2 G,2 | F,4 E,2 G,2 | [B,,F,]4 z4 | z8 | z4 F,4 | %182
 F,4 z4 | z8 | z8 | z8 |] %186
V:7
 F,8- | F,8 | z8 | z8 | z8 | z8 | z8 | x8 | B,,8- | B,,8- | B,,8- | B,,4 F,,4 | x8 | x8 | %14
 G,,4 D,,4 | E,4 D,4 | x8 | x8 | x8 | x8 | x8 | x8 | x8 | x8 | B,,8- | B,,8- | B,,8- | B,,4 F,,4 | %28
 x8 | F,,8 | G,,4 D,,4 | E,,2 F,,2 B,,4 | B,,3 B,, B,,4 | F,,3 F,, F,,4 | G,,4 [D,,D,]4 | %35
 [E,,E,]4 [F,,F,]4 | B,,8 | [F,,F,]8 | [G,,G,]4 [F,,F,]4 | [G,,G,]2 [A,,A,]2 [B,,B,]4 | %40
 z2 [B,,B,] z [B,,B,] z [B,,B,] z | D4 B,2 C2 | D4 E2 F2- | F2 z2 [F,,F,] z z2 | B,,8 | [F,,F,]8 | %46
 G,,4 D,,2 D,,2 | E,,2 F,,2 B,,4 | x8 | x8 | x8 | x8 | x8 | x8 | !courtesy!_A,8- | A,8- | A,8- | %57
 A,8- | A,4- A, z z2 | x8 ||[K:Db] z8 | x8 | x8 | z8 | x8 | x8 | x8 | x8 | [G,,G,]8 | %69
 [F,,F,]4 [G,,G,]4 | A,8- | (3:2:2A, x7/4 x37/6 | D,,8 | E,,8 | A,,8 | A,,8 | D,,8 | D,,8 | E,,8 | %79
 A,,6 G,,2 | F,,6 G,,2 | A,,8 | D,8- | D,8- | D,4 A,,4- | A,,8 | D,,2 x6 | z8 | x8 | B,4 A,4 | %90
 D4 x4 | E4 FE D2 | x6 B,2 | CB, A,2 B,4 | A,4 B,G, G,2 | F,4 B,A, G,2 | A,4 G,F, E,2 | %97
 F,E, D,2 E,4 | x8 | x8 | x8 | x8 | F,4 x4 | x8 | [A,,F,]6 B,,D, | F,6 B,,D, | F,2 E,=D, C,4- | %107
 C,2 E,=D, C,4- | C,2 E,=D, C,4- | C,2 C,E, !courtesy!=G,4 | =G,4 z2 z2 | z8 | z8 | z4 B,4 | %114
 C,,2 z2 z4 | =G,,2 z2 z4 | A,,2 z2 F,,2 z2 | F,,2 z2 =G,,2 z2 | C,,2 x6 | G,,8- | G,,8 | =D,8 || %122
[K:Bb] !courtesy!=F,8- | F,8- | F,8- | F,8 | F,8- | F,8 | D,8 | x8 | [B,,F,]8 | [F,,F,]8 | %132
 G,,4 F,,4 | z8 | z2 [B,,B,] z [B,,B,] z [B,,B,] z | z2 [B,,B,] z [E,,E,] z [G,,G,] z | %136
 z2 [B,,B,] z [G,,G,] z [G,,G,] z | [B,,B,] z z2 [F,,F,] z z2 | B,,8 | [F,,F,]8 | %140
 G,,4 !^!D,,2 !^!D,,2 | !^!E,,2 !^!F,,2 !^!B,,4 | [B,,D,]4 E,,4 | F,8 | %144
 [G,,G,]4 [F,,F,]2 [E,,E,]2 | [F,,F,]8 | E,,8 | D,,4 E,,4 | F,,8 | B, z z2 x4 | z8 | %151
 [D,,D,]4 [E,,E,]4 | F,8- | (3F,F,B, x6 | B,,8 | B,,8 | C,,8 | F,,8 | B,,8 | B,,8 | C,,8 | x8 | %162
 x8 | x8 | B,,8 | B,,8 | E,,8 | F,,4- F,,2 x2 | B,,4 F,,4 | E,,4 D,,4 | G,,8 | %171
 [^F,,^F,]4 [G,,G,]4 | [E,,E,]4 [F,,F,]3 B,, | x8 | B,,8 | [B,,F,]4 x4 | x8 | B,,8- | B,,8 | %179
 B,,4 x4 | z8 | z4 [F,,C,]4 | B,,4 z4 | z8 | z8 | z8 |] %186
V:8
 x8 | A,3 G, A,4 | B,4 [B,D]4 | x8 | B,8- | B,4 A,4 | B,4 D2 F2- | F4- F4 | B,8- | B,8- | B,4 x4 | %11
 x8 | D8- | D4 A,4 | B,4- B,4 | G,2 A,2 B,4 | x8 | E8 | x8 | C2 E6 | x8 | [CE]8 | B,4 D2 F2- | %23
 F2 [CE]2 [B,E]4 | B,8 | D4 B,2 C2 | x8 | D4 C4 | B,8- | B,4 A,4 | B,6 A,2 | G,2 A,2 B,4 | x8 | %33
 x8 | x4 F2 B2 | G4 F2 E2 | x8 | x8 | D4 F4- | F2 [EF]2 [DF]4 | x8 | x8 | x8 | x8 | x8 | x8 | x8 | %47
 x4 B4 | x8 | x8 | x8 | !courtesy!_D8 | x8 | x8 | [!courtesy!_DF]8- | [DF]8 | E3 !courtesy!_D C4 | %57
 F3 E !courtesy!_D4 | [!courtesy!_G!courtesy!_A]4- [GA] z z2 | x8 ||[K:Db] x8 | x8 | D2 x6 | x8 | %64
 x8 | x8 | x8 | x8 | x8 | x8 | d2 c2 B2 c2 | d z z2 x4 | x8 | x4 B3 A | A2 G2 B2 d2 | c2 B2 A4 | %76
 F4 d3 c | c4 B4- | B4 B2 d2 | c2 B2 A4 | d2 c2 !courtesy!_c2 B2 | A4 x4 | x8 | x8 | x8 | x8 | %86
 x4 [DEG]4 | x4 [DEG]4 | x4 A,4 | F2 =G2 A4 | A2 A4- A2- | A2 A4- A2- | A2 A4- A2- | A2 E2- E4- | %94
 E2 z2 z4 | x8 | z2 F2 B2 G2 | A8- | [Af]2 x6 | x8 | x8 | x8 | x8 | x8 | x8 | x8 | x8 | x8 | x8 | %109
 x8 | x8 | x8 | x8 | x8 | x8 | x8 | x8 | x8 | C8- | C4 =B,4 | !courtesy!_B,8 | =A,8 || %122
[K:Bb] !courtesy!=A,3 B, C4 | D4 B4- | B4 A4 | G4 A4 | B2 x6 | x8 | x4 D2 F2 | G2 E2 C4 | x8 | x8 | %132
 D4 F4- | F2 [EF]2 [DF]4 | z2 [FBf] z [GBg] z [EBe] z | z2 [FBf] z [GBg] z [EBe] z | %136
 z2 [FBf] z [Be] z [ce] x | [Bd] z z2 [Fc] z z2 | x8 | x8 | x8 | !^![Gd]2 !^![Ac]2 !^!B4 | x8 | %143
 x8 | x8 | x8 | [FA]8 | F4 E4 | E8 | x8 | x8 | x8 | x8 | B x7 | x4 D4- | D4 G3 F | F2 E2 G2 B2 | %157
 A2 G2 F2 E2 | D4 D4- | D4 G3 F | F2 E2 G2 B2 | A2 G2 F4- | F4 !courtesy!_A2 G2 | d4 c3 B | D4 F4 | %165
 E4 D4 | C8 | F4 E3 D | D4 B,4 | C4 D4- | D4 G4 | A4 G4 | G4 E3 D | [DF]4 C4 | D4 C4 | D4 x4 | x8 | %177
 B,8- | B,8- | B,4 x4 | x8 | x8 | x8 | x8 | x8 | x8 |] %186
V:9
 x8 | x8 | x8 | x8 | x8 | x8 | x8 | x8 | x8 | x8 | x8 | x8 | x8 | x8 | x8 | x8 | x8 | x8 | x8 | %19
 x8 | x8 | x8 | x8 | x8 | x8 | x8 | x8 | x8 | x8 | x8 | x8 | x8 | x8 | x8 | x8 | x8 | x8 | x8 | %38
 x8 | x8 | x8 | x8 | x8 | x8 | x8 | x8 | x8 | x8 | x8 | x8 | x8 | x8 | x8 | x8 | x8 | x8 | x8 | %57
 x8 | x8 | x8 ||[K:Db] x8 | x8 | x8 | x8 | x8 | x8 | x8 | x8 | x8 | x8 | A,,8 | D,,8 | x8 | x8 | %74
 x8 | x8 | x8 | x8 | x8 | x8 | x8 | x8 | x8 | x8 | x8 | x8 | x8 | x8 | x8 | x8 | x8 | x8 | x8 | %93
 x8 | x8 | x8 | x8 | x8 | x8 | x8 | x8 | x8 | B,,8 | B,,8 | x8 | x8 | x8 | x8 | x8 | x8 | C,8- | %111
 C,8- | C,4 x4 | x8 | x8 | x8 | x8 | x8 | E,8 | x8 | x8 | x8 ||[K:Bb] x8 | x8 | x8 | x4 F,4- | %126
 F,4 x4 | E,8 | F,6 x2 | x8 | x8 | x8 | x8 | x8 | x8 | x8 | x8 | x8 | x8 | x8 | x8 | x8 | x8 | x8 | %144
 x8 | x8 | x8 | x8 | x8 | B,, z z2 z4 | x8 | x8 | F,,8 | x8 | x8 | x8 | x8 | x8 | x8 | x8 | x8 | %161
 x8 | x8 | x8 | x8 | x8 | x8 | F,8 | x8 | x8 | x8 | x8 | x8 | B,8- | B,8- | B,4 x4 | x8 | x8 | x8 | %179
 x8 | x8 | x8 | x8 | x8 | x8 | x8 |] %186

